X: 38960
T: Swaggering Jig, The
R: slip jig
M: 9/8
K: Gmajor
BAG AGE EDD|BAG AGE c2 d|BAG AGE ED>D|cBA BGE D2:|
GBd efe dcB|GBd efe d2 B|GBd efe dcB|AGE GAB c2 A|
GBd efe dcB|GBd efe d2 f|gfe edB BAG|AGE GAB c2||

